assets/fonts/svg-files-for-custom-font/chat.svg

<svg enable-background="new 0 0 20 20" viewBox="0 0 20 20" xmlns="http://www.w3.org/2000/svg"><path d="m5.8 12.2v-6.2h-3.8c-1.1 0-2 .9-2 2v6c0 1.1.9 2 2 2h1v3l3-3h5c1.1 0 2-.9 2-2v-1.82c-.064.014-.132.021-.2.021h-7zm12.2-11.2h-9c-1.1 0-2 .9-2 2v8h7l3 3v-3h1c1.1 0 2-.899 2-2v-6c0-1.1-.9-2-2-2z"/></svg>

<?xml version="1.0" encoding="iso-8859-1"?>
<!-- Generator: Adobe Illustrator 18.1.0, SVG Export Plug-In . SVG Version: 6.00 Build 0)  -->
<!DOCTYPE svg PUBLIC "-//W3C//DTD SVG 1.1//EN" "http://www.w3.org/Graphics/SVG/1.1/DTD/svg11.dtd">
<svg version="1.1" id="Chat" xmlns="http://www.w3.org/2000/svg" xmlns:xlink="http://www.w3.org/1999/xlink" x="0px" y="0px"
	 viewBox="0 0 20 20" style="enable-background:new 0 0 20 20;" xml:space="preserve">
<path d="M5.8,12.2V6H2C0.9,6,0,6.9,0,8v6c0,1.1,0.9,2,2,2h1v3l3-3h5c1.1,0,2-0.9,2-2v-1.82c-0.064,0.014-0.132,0.021-0.2,0.021h-7
	V12.2z M18,1H9C7.9,1,7,1.9,7,3v8h7l3,3v-3h1c1.1,0,2-0.899,2-2V3C20,1.9,19.1,1,18,1z"/>
</svg>
